X:124
T:Reels simple chords 403
M:3/4
L:1/8
K:A
E2 [E2A,2C2E2] Ac | BA af [eA,CE]c | Bd cA FA | [E2A,2C2E2] Ac BA | af [eE,G,B,D]c Bc |
A2 E2 [E2A,2C2E2] | Ac BA af | [eA,CE]c Bd cA | FA [E2A,2C2E2] Ac |
BA af [eE,G,B,D]c | Bc A2 e2 | [aA,CE]g af ea | ce [dD,F,A,]B cA |
BA FA [aA,CE]g | af ea c'a | [bD,F,A,]a bc' b2 | ab [c'A,CE]a fa |
ea ce [dD,F,A,]B | cA BA FA | [E2A,2C2E2] Ac BA | af [eE,G,B,D]c Bc |
A2 |


